X: 1
T: In And Out The Harbor
M: 4/4
L: 1/8
R: reel
K: Ador
|:egfd eA(3AAA|edBd eA(3AAA)|egfd eA(3AAA|BGdc BGBd:|
|:eaaf gafa|eA(3AAA eABd|eaaf ge^ce|afge d2 ^cd:|
